X:1
T:Haldon, 12.11.12.11
T:Haldon, 12.11.12.11
T:John Ferris Tozer, 1905
T:Public Domain Courtesy of the Cyber Hymnal™
C:John Ferris Tozer, 1905
Z:Public Domain
Z:Courtesy of the Cyber Hymnal™
%%score ( 1 2 ) ( 3 4 )
L:1/8
M:4/4
K:Ab
V:1 treble 
V:2 treble 
V:3 bass 
V:4 bass 
V:1
 E2 | [Ec]4 [EB]2 [CA]2 | ([EG]2 [DF]2) [A,A]2 [DF]2 | [CE]4 [DF]2 [B,D]2 | [B,D]4 [A,C]2 [G,D]2 | %5
 [A,E]4 [EF]2 [DG]2 | [CA]4 [FB]2 [Ec]2 | (c2 F2) [_DG]2 [DA]2 | [EB]6 E2 | [Ee]4 [Ec]2 [=EA]2 | %10
 F4 [FG]2 [G=A]2 | ([FB]2 [Ec]2) [Dd]2 [DF]2 | [DF]4 [DE]2 ([DE][DE]) | [Ec]4 [=Ec]2 [Gc]2 | %14
 (c2 e2) [Fd]2 [DF]2 | [DF]4 [DE]2 [DB]2 | [CA]6 |] %17
V:2
 E2 | x8 | x8 | x8 | x8 | x8 | x8 | =D4 x4 | x6 E2 | x8 | F4 x4 | x8 | x8 | x8 | F4 x4 | x8 | x6 |] %17
V:3
 E,2 | [A,,C]4 [B,,D]2 [C,E]2 | [D,A,]4 [F,D]2 [D,A,]2 | [E,A,]4 [E,G,]2 [E,G,]2 | %4
 [A,,G,]4 [A,,A,]2 [B,,E,]2 | [C,E,]4 [D,C]2 [E,B,]2 | [F,A,]4 [F,G,]2 [F,A,]2 | %7
 [B,,A,]4 [B,,G,]2 [B,,F,]2 | (A,4 G,2) [D,A,]2 | [C,A,]4 [C,A,]2 [C,C]2 | [D,A,]4 [D,B,]2 [C,E]2 | %11
 (D2 C2) [B,,B,]2 [A,,B,]2 | [G,,B,]4 [G,B,]2 ([E,G,][E,G,]) | [A,C]4 [G,B,]2 [C,B,]2 | %14
 [F,=A,]4 [B,,B,]2 [B,,_A,]2 | [E,A,]4 [E,G,]2 E,2 | [A,,E,]6 |] %17
V:4
 E,2 | x8 | x8 | x8 | x8 | x8 | x8 | x8 | E,6 x2 | x8 | x8 | B,,4 x4 | x8 | x8 | x8 | x6 E,2 | %16
 x6 |] %17

